!!!SOCIAL_FUNCTION:	memorial ceremony songs
!!!PDT:	1932
!!!OTL: No_33_Coyote_Comes_to_the_Cremation_of_the_Superman.krn
!!!REG: Southwest
!!!LANG: Non-Tone
!!!LING_GROUP: Yuman-Cochimi
**kern	**kern
*staff2	*staff1
=1-	=1-
*clefF4	*clefF4
*k[f#]	*k[f#]
*M2/4	*M2/4
8GG^/L	4r
8GG/J	.
8GG/	8E\L
16r	8E\J
16GG/	.
=2	=2
8GG^/L	4B\
8GG/J	.
8GG/	8A\L
16r	8B\J
16GG/	.
=3	=3
2r	8G\L
.	16G\Jk
.	16r
.	8E\L
.	8E\J
=4	=4
2r	4A\
.	8E\L
.	8G\J
=5	=5
2r	8D\L
.	16D\Jk
.	16r
.	8BB/L
.	8D/J
=6	=6
2r	4G\
.	8D\L
.	8D\J
=7	=7
2r	8BB/L
.	16BB/Jk
.	16r
.	8BB/L
.	8BB/J
=8	=8
2r	4D\
.	8BB/L
.	8D/J
=9	=9
2r	8D\
.	8r
.	8G\L
.	8E\J
=10	=10
2r	4G\
.	8D\L
.	8D\J
=11	=11
2r	8BB/L
.	16BB/Jk
.	16r
.	8BB/L
.	8BB/J
=12	=12
2r	4D\
.	8BB/L
.	8D/J
=13	=13
2r	8D\
.	8r
.	4r
==	==
*-	*-
